x-pack/solutions/observability/plugins/apm/public/components/shared/span_icon/icons/storage_queue.svg

<svg width="19" height="18" viewBox="0 0 19 18" fill="none" xmlns="http://www.w3.org/2000/svg">
<g clip-path="url(#clip0_1421_84667)">
<path d="M0.5 16.128C0.5 16.488 0.788 16.812 1.148 16.812H17.816C18.176 16.812 18.5 16.524 18.5 16.128V4.21204H0.5V16.128Z" fill="#A0A1A2"/>
<path d="M17.816 1.43994H1.148C0.788 1.43994 0.5 1.76394 0.5 2.12394V4.17594H18.5V2.12394C18.5 1.76394 18.212 1.43994 17.816 1.43994Z" fill="#7A7A7A"/>
<path d="M6.15203 5.43604H1.83203V15.444H6.15203V5.43604Z" fill="#804998"/>
<path d="M11.6601 5.43604H7.34009V15.444H11.6601V5.43604Z" fill="#804998"/>
<path d="M17.1679 5.43604H12.8479V15.444H17.1679V5.43604Z" fill="#804998"/>
<path opacity="0.2" d="M1.22 1.43994C0.824 1.43994 0.5 1.76394 0.5 2.15994V4.78794V5.97594V16.0559C0.5 16.4519 0.824 16.7759 1.22 16.7759H2.012L16.196 1.43994H1.22Z" fill="white"/>
</g>
<defs>
<clipPath id="clip0_1421_84667">
<rect width="18" height="18" fill="white" transform="translate(0.5)"/>
</clipPath>
</defs>
</svg>

<svg xmlns="http://www.w3.org/2000/svg" width="19" height="18" fill="none"><g clip-path="url(#a)"><path fill="#A0A1A2" d="M.5 16.128c0 .36.288.684.648.684h16.668c.36 0 .684-.288.684-.684V4.212H.5z"/><path fill="#7A7A7A" d="M17.816 1.44H1.148c-.36 0-.648.324-.648.684v2.052h18V2.124a.684.684 0 0 0-.684-.684"/><path fill="#804998" d="M6.152 5.436h-4.32v10.008h4.32zM11.66 5.436H7.34v10.008h4.32zM17.168 5.436h-4.32v10.008h4.32z"/><path fill="#fff" d="M1.22 1.44a.72.72 0 0 0-.72.72v13.896c0 .396.324.72.72.72h.792L16.196 1.44z" opacity=".2"/></g><defs><clipPath id="a"><path fill="#fff" d="M.5 0h18v18H.5z"/></clipPath></defs></svg>
